src/icons/solid/file-video.svg

<svg xmlns="http://www.w3.org/2000/svg" viewBox="0 0 384 512"><!--! Font Awesome Pro 6.7.2 by @fontawesome - https://fontawesome.com License - https://fontawesome.com/license (Commercial License) Copyright 2024 Fonticons, Inc. --><path d="M64 0C28.7 0 0 28.7 0 64L0 448c0 35.3 28.7 64 64 64l256 0c35.3 0 64-28.7 64-64l0-288-128 0c-17.7 0-32-14.3-32-32L224 0 64 0zM256 0l0 128 128 0L256 0zM64 288c0-17.7 14.3-32 32-32l96 0c17.7 0 32 14.3 32 32l0 96c0 17.7-14.3 32-32 32l-96 0c-17.7 0-32-14.3-32-32l0-96zM300.9 397.9L256 368l0-64 44.9-29.9c2-1.3 4.4-2.1 6.8-2.1c6.8 0 12.3 5.5 12.3 12.3l0 103.4c0 6.8-5.5 12.3-12.3 12.3c-2.4 0-4.8-.7-6.8-2.1z"/></svg>

<svg xmlns="http://www.w3.org/2000/svg" viewBox="0 0 384 512"><!--! Font Awesome Pro 6.5.2 by @fontawesome - https://fontawesome.com License - https://fontawesome.com/license (Commercial License) Copyright 2024 Fonticons, Inc. --><path d="M64 0C28.7 0 0 28.7 0 64V448c0 35.3 28.7 64 64 64H320c35.3 0 64-28.7 64-64V160H256c-17.7 0-32-14.3-32-32V0H64zM256 0V128H384L256 0zM64 288c0-17.7 14.3-32 32-32h96c17.7 0 32 14.3 32 32v96c0 17.7-14.3 32-32 32H96c-17.7 0-32-14.3-32-32V288zM300.9 397.9L256 368V304l44.9-29.9c2-1.3 4.4-2.1 6.8-2.1c6.8 0 12.3 5.5 12.3 12.3V387.7c0 6.8-5.5 12.3-12.3 12.3c-2.4 0-4.8-.7-6.8-2.1z"/></svg>
